images/icons/tiktok.svg

<svg fill="none" height="24" viewBox="0 0 24 24" width="24" xmlns="http://www.w3.org/2000/svg" xmlns:xlink="http://www.w3.org/1999/xlink"><clipPath id="a"><path d="m0 0h24v24h-24z"/></clipPath><g clip-path="url(#a)" clip-rule="evenodd" fill-rule="evenodd"><path d="m17.1843 8.66371c1.5686 1.10711 3.4903 1.75859 5.5657 1.75859v-3.94351c-.3928.00015-.7846-.04033-1.1689-.12078v3.10414c-2.0752 0-3.9966-.65147-5.5656-1.75858v8.04743c0 4.0258-3.3051 7.2891-7.38199 7.2891-1.52112 0-2.93503-.4541-4.10958-1.2329 1.34052 1.3534 3.20992 2.193 5.27812 2.193 4.07715 0 7.38245-3.2633 7.38245-7.2892v-8.04729zm1.4419-3.97848c-.8016-.86471-1.3279-1.9823-1.4419-3.21784v-.507185h-1.1076c.2788 1.570265 1.2297 2.911855 2.5495 3.725025zm-11.5237 14.03287c-.44783-.5798-.6899-1.2892-.68882-2.0186 0-1.8412 1.5118-3.3341 3.3769-3.3341.34752-.0002.69302.0525 1.02432.1562v-4.03155c-.3871-.05238-.7777-.07458-1.16836-.06641v3.13796c-.33145-.1037-.6771-.1564-1.02478-.1562-1.8651 0-3.37676 1.4929-3.37676 3.3343 0 1.3019.75561 2.4293 1.8575 2.9784z" fill="#ee1d52"/><path d="m16.0141 7.70357c1.569 1.10711 3.4904 1.75858 5.5656 1.75858v-3.10414c-1.1584-.24354-2.1839-.84134-2.9549-1.67278-1.3198-.81317-2.2708-2.15476-2.5495-3.725025h-2.9094v15.750695c-.0066 1.8361-1.5158 3.3229-3.37691 3.3229-1.09673 0-2.07106-.5161-2.68808-1.3157-1.10189-.5491-1.8575-1.6765-1.8575-2.9784 0-1.8414 1.51166-3.3343 3.37676-3.3343.35731 0 .70172.055 1.02478.1562v-3.13796c-4.00524.0817-7.22649 3.31316-7.22649 7.28736 0 1.9839.80219 3.7824 2.10402 5.0964 1.17456.7787 2.58847 1.2328 4.10959 1.2328 4.07693 0 7.38203-3.2634 7.38203-7.2891z" fill="#fff"/><path d="m21.5799 6.35781v-.83937c-1.0446.00156-2.0686-.2873-2.9549-.83355.7845.84811 1.8176 1.43298 2.9549 1.67292zm-5.5044-5.39781c-.0266-.150052-.0471-.301116-.0612-.452814v-.507186h-4.0171v15.7508c-.0065 1.836-1.5156 3.3228-3.37681 3.3228-.5465 0-1.06233-.128-1.51925-.3557.61702.7996 1.59135 1.3157 2.68808 1.3157 1.86098 0 3.37028-1.4868 3.37688-3.3229v-15.7507zm-6.43018 8.46343v-.89359c-.33568-.04534-.67409-.068-1.01289-.06782-4.07733 0-7.38243 3.26348-7.38243 7.28878 0 2.5237 1.29896 4.7479 3.27285 6.0562-1.30183-1.314-2.10403-3.1125-2.10403-5.0963 0-3.9741 3.22111-7.20557 7.2265-7.28727z" fill="#69c9d0"/></g></svg>

<svg width="24" height="24" viewBox="0 0 24 24" fill="none" xmlns="http://www.w3.org/2000/svg">
<g clip-path="url(#clip0)">
<path fill-rule="evenodd" clip-rule="evenodd" d="M17.1844 8.66371C18.7529 9.77082 20.6747 10.4223 22.75 10.4223V6.47879C22.3572 6.47894 21.9655 6.43846 21.5812 6.35801V9.46215C19.506 9.46215 17.5845 8.81068 16.0156 7.70357V15.751C16.0156 19.7768 12.7105 23.0401 8.63356 23.0401C7.11244 23.0401 5.69853 22.586 4.52397 21.8072C5.8645 23.1606 7.7339 24.0002 9.80209 24.0002C13.8793 24.0002 17.1845 20.7369 17.1845 16.711V8.66371H17.1844ZM18.6262 4.68523C17.8246 3.82052 17.2983 2.70293 17.1844 1.46739V0.960205H16.0768C16.3555 2.53047 17.3065 3.87206 18.6262 4.68523V4.68523ZM7.10255 18.7181C6.65472 18.1383 6.41264 17.4289 6.41372 16.6995C6.41372 14.8583 7.92553 13.3654 9.79063 13.3654C10.1382 13.3652 10.4837 13.4179 10.815 13.5216V9.49005C10.4279 9.43767 10.0372 9.41547 9.64658 9.42364V12.5616C9.31513 12.4579 8.96949 12.4052 8.6218 12.4054C6.7567 12.4054 5.24504 13.8983 5.24504 15.7397C5.24504 17.0416 6.00066 18.169 7.10255 18.7181V18.7181Z" fill="#EE1D52"/>
<path fill-rule="evenodd" clip-rule="evenodd" d="M16.014 7.70357C17.583 8.81068 19.5045 9.46215 21.5797 9.46215V6.35801C20.4213 6.11447 19.3958 5.51667 18.6247 4.68523C17.305 3.87206 16.354 2.53047 16.0752 0.960205H13.1659V16.7109C13.1593 18.547 11.65 20.0338 9.78896 20.0338C8.69223 20.0338 7.7179 19.5177 7.10088 18.7181C5.99899 18.169 5.24338 17.0416 5.24338 15.7397C5.24338 13.8983 6.75504 12.4054 8.62014 12.4054C8.97745 12.4054 9.32186 12.4604 9.64492 12.5616V9.42364C5.63968 9.50534 2.41843 12.7368 2.41843 16.711C2.41843 18.6949 3.22062 20.4934 4.52245 21.8074C5.69701 22.5861 7.11092 23.0402 8.63204 23.0402C12.7089 23.0402 16.014 19.7768 16.014 15.7511V7.70357Z" fill="white"/>
<path fill-rule="evenodd" clip-rule="evenodd" d="M21.5799 6.35781V5.51844C20.5353 5.52 19.5113 5.23114 18.625 4.68489C19.4095 5.533 20.4426 6.11787 21.5799 6.35781V6.35781ZM16.0755 0.96C16.0489 0.809948 16.0284 0.658884 16.0143 0.507186V0H11.9972V15.7508C11.9907 17.5868 10.4816 19.0736 8.62039 19.0736C8.07389 19.0736 7.55806 18.9456 7.10114 18.7179C7.71816 19.5175 8.69249 20.0336 9.78922 20.0336C11.6502 20.0336 13.1595 18.5468 13.1661 16.7107V0.96H16.0755ZM9.64532 9.42343V8.52984C9.30964 8.4845 8.97123 8.46184 8.63243 8.46202C4.5551 8.46202 1.25 11.7255 1.25 15.7508C1.25 18.2745 2.54896 20.4987 4.52285 21.807C3.22102 20.493 2.41882 18.6945 2.41882 16.7107C2.41882 12.7366 5.63993 9.50513 9.64532 9.42343V9.42343Z" fill="#69C9D0"/>
</g>
<defs>
<clipPath id="clip0">
<rect width="24" height="24" fill="white"/>
</clipPath>
</defs>
</svg>
